assets/images/PhoneIcon.svg

<svg xmlns="http://www.w3.org/2000/svg" width="71.18" height="71.18" viewBox="0 0 71.18 71.18">
  <path id="PhoneIcon" d="M146.09,108.41A35.59,35.59,0,1,1,110.5,144a35.585,35.585,0,0,1,35.59-35.59Zm-10.3,13.46h20.58a2.834,2.834,0,0,1,2.83,2.83v38.59a2.834,2.834,0,0,1-2.83,2.83H135.79a2.834,2.834,0,0,1-2.83-2.83V124.7a2.847,2.847,0,0,1,2.83-2.83Zm21.05,5.73v29.14H135.33V127.6Zm-10.75,31.42a2.32,2.32,0,1,1-2.32,2.32,2.322,2.322,0,0,1,2.32-2.32Z" transform="translate(-110.5 -108.41)" fill="#fff" fill-rule="evenodd"/>
</svg>

<?xml version="1.0" encoding="utf-8"?>
<!-- Generator: Adobe Illustrator 26.3.1, SVG Export Plug-In . SVG Version: 6.00 Build 0)  -->
<svg version="1.1" id="Layer_1" xmlns="http://www.w3.org/2000/svg" xmlns:xlink="http://www.w3.org/1999/xlink" x="0px" y="0px"
	 viewBox="0 0 288 288" style="enable-background:new 0 0 288 288;" xml:space="preserve">
<style type="text/css">
	.st0{fill-rule:evenodd;clip-rule:evenodd;fill:#FFFFFF;}
</style>
<path class="st0" d="M146.09,108.41c19.66,0,35.59,15.93,35.59,35.59c0,19.66-15.93,35.59-35.59,35.59
	c-19.66,0-35.59-15.93-35.59-35.59C110.49,124.34,126.43,108.41,146.09,108.41L146.09,108.41z M135.79,121.87h20.58
	c1.56,0,2.83,1.27,2.83,2.83v38.59c0,1.56-1.27,2.83-2.83,2.83h-20.58c-1.56,0-2.83-1.27-2.83-2.83V124.7
	C132.96,123.15,134.24,121.87,135.79,121.87L135.79,121.87z M156.84,127.6v29.14h-21.51V127.6H156.84L156.84,127.6z M146.09,159.02
	c1.28,0,2.32,1.04,2.32,2.32c0,1.28-1.04,2.32-2.32,2.32c-1.28,0-2.32-1.04-2.32-2.32C143.77,160.06,144.81,159.02,146.09,159.02
	L146.09,159.02z"/>
</svg>
